static/assets/images/exchanges/katana.svg

<svg width="184" height="256" viewBox="0 0 184 256" fill="none" xmlns="http://www.w3.org/2000/svg">
<path fill-rule="evenodd" clip-rule="evenodd" d="M0 19.693V177.631C0.00186209 180.581 0.673151 183.493 1.96427 186.151C3.2554 188.81 5.13337 191.148 7.45946 192.991L82.6759 252.76C85.3215 254.858 88.6103 256 91.9999 256C95.3895 256 98.6783 254.858 101.325 252.76L176.541 192.991C178.867 191.148 180.745 188.81 182.036 186.151C183.327 183.493 183.998 180.581 184 177.631V19.693C184 14.4701 181.905 9.46112 178.174 5.76795C174.443 2.07479 169.384 0 164.108 0H19.8919C14.6162 0 9.55663 2.07479 5.82621 5.76795C2.09575 9.46112 0 14.4701 0 19.693Z" fill="#004DE5"/>
<path d="M149.215 87.6806V51.0141C149.215 46.1518 147.287 41.4887 143.856 38.0506C140.424 34.6124 135.771 32.6809 130.918 32.6809H53.1576C48.3051 32.6809 43.6513 34.6124 40.2201 38.0506C36.7888 41.4887 34.8611 46.1518 34.8611 51.0141V157.405C34.8628 160.151 35.4802 162.862 36.6678 165.337C37.8554 167.812 39.5828 169.988 41.7223 171.705L70.0362 194.483C70.3723 194.757 70.7789 194.929 71.2087 194.98C71.6385 195.03 72.0739 194.958 72.4643 194.771C72.8547 194.584 73.1841 194.29 73.4142 193.923C73.6443 193.555 73.7656 193.13 73.7642 192.696V117.473C73.7642 116.864 74.0051 116.281 74.434 115.852C74.863 115.422 75.4447 115.18 76.0512 115.18H96.6347C100.274 115.18 103.765 116.629 106.338 119.208C108.912 121.786 110.357 125.284 110.357 128.931V192.696C110.358 193.128 110.48 193.55 110.709 193.916C110.938 194.281 111.267 194.574 111.655 194.76C112.043 194.948 112.476 195.02 112.904 194.972C113.332 194.922 113.737 194.754 114.073 194.483L142.388 171.705C144.528 169.988 146.255 167.812 147.443 165.337C148.63 162.862 149.247 160.151 149.249 157.405V124.347C149.249 119.485 147.321 114.822 143.89 111.384C140.459 107.946 135.805 106.014 130.953 106.014C135.799 106.005 140.444 104.069 143.868 100.632C147.292 97.1949 149.215 92.537 149.215 87.6806ZM96.6117 96.8472H76.0284C75.4218 96.8472 74.84 96.606 74.4112 96.1765C73.9823 95.7462 73.7413 95.1633 73.7413 94.5557V53.3058C73.7413 52.698 73.9823 52.1151 74.4112 51.6854C74.84 51.2556 75.4218 51.0141 76.0284 51.0141H108.047C108.654 51.0141 109.236 51.2556 109.665 51.6854C110.094 52.1151 110.335 52.698 110.335 53.3058V83.0977C110.335 86.7441 108.889 90.2413 106.315 92.8199C103.742 95.3985 100.251 96.8472 96.6117 96.8472Z" fill="white"/>
</svg>

<svg xmlns="http://www.w3.org/2000/svg" fill="none" viewBox="0 0 184 256"><path fill="#004DE5" fill-rule="evenodd" d="M0 19.693v157.938c.002 2.95.673 5.862 1.964 8.52a19.7 19.7 0 0 0 5.495 6.84l75.217 59.769A15 15 0 0 0 92 256c3.39 0 6.678-1.142 9.325-3.24l75.216-59.769a19.7 19.7 0 0 0 5.495-6.84 19.5 19.5 0 0 0 1.964-8.52V19.693a19.6 19.6 0 0 0-5.826-13.925A20 20 0 0 0 164.108 0H19.892A20 20 0 0 0 5.826 5.768 19.6 19.6 0 0 0 0 19.693" clip-rule="evenodd"/><path fill="#fff" d="M149.215 87.68V51.015c0-4.862-1.928-9.525-5.359-12.963a18.28 18.28 0 0 0-12.938-5.37h-77.76a18.28 18.28 0 0 0-12.938 5.37 18.35 18.35 0 0 0-5.359 12.963v106.391c.002 2.746.62 5.457 1.807 7.932a18.3 18.3 0 0 0 5.054 6.368l28.314 22.778a2.28 2.28 0 0 0 3.378-.56 2.3 2.3 0 0 0 .35-1.227v-75.223a2.29 2.29 0 0 1 2.287-2.293h20.584c3.639 0 7.13 1.449 9.703 4.028a13.76 13.76 0 0 1 4.019 9.723v63.765a2.28 2.28 0 0 0 1.298 2.064 2.28 2.28 0 0 0 2.418-.277l28.315-22.778a18.34 18.34 0 0 0 6.861-14.3v-33.058c0-4.862-1.928-9.525-5.359-12.963a18.28 18.28 0 0 0-12.937-5.37 18.28 18.28 0 0 0 12.915-5.382 18.35 18.35 0 0 0 5.347-12.951m-52.603 9.167H76.028a2.285 2.285 0 0 1-2.287-2.291v-41.25a2.294 2.294 0 0 1 2.287-2.292h32.019a2.286 2.286 0 0 1 2.288 2.292V83.1c0 3.646-1.446 7.143-4.02 9.722a13.7 13.7 0 0 1-9.703 4.027"/></svg>
